assets/img/instagram.svg

<svg width="23" height="23" viewBox="0 0 23 23" fill="none" xmlns="http://www.w3.org/2000/svg">
<path d="M6.38889 0C2.86606 0 0 2.86606 0 6.38889V16.6111C0 20.1339 2.86606 23 6.38889 23H16.6111C20.1339 23 23 20.1339 23 16.6111V6.38889C23 2.86606 20.1339 0 16.6111 0H6.38889ZM6.38889 2.55556H16.6111C18.7246 2.55556 20.4444 4.27544 20.4444 6.38889V16.6111C20.4444 18.7246 18.7246 20.4444 16.6111 20.4444H6.38889C4.27544 20.4444 2.55556 18.7246 2.55556 16.6111V6.38889C2.55556 4.27544 4.27544 2.55556 6.38889 2.55556ZM17.8889 3.83333C17.55 3.83333 17.225 3.96796 16.9854 4.20759C16.7457 4.44722 16.6111 4.77222 16.6111 5.11111C16.6111 5.45 16.7457 5.77501 16.9854 6.01464C17.225 6.25427 17.55 6.38889 17.8889 6.38889C18.2278 6.38889 18.5528 6.25427 18.7924 6.01464C19.032 5.77501 19.1667 5.45 19.1667 5.11111C19.1667 4.77222 19.032 4.44722 18.7924 4.20759C18.5528 3.96796 18.2278 3.83333 17.8889 3.83333ZM11.5 5.11111C7.97717 5.11111 5.11111 7.97717 5.11111 11.5C5.11111 15.0228 7.97717 17.8889 11.5 17.8889C15.0228 17.8889 17.8889 15.0228 17.8889 11.5C17.8889 7.97717 15.0228 5.11111 11.5 5.11111ZM11.5 7.66667C13.6134 7.66667 15.3333 9.38656 15.3333 11.5C15.3333 13.6134 13.6134 15.3333 11.5 15.3333C9.38656 15.3333 7.66667 13.6134 7.66667 11.5C7.66667 9.38656 9.38656 7.66667 11.5 7.66667Z" fill="url(#paint0_linear_326_304)"/>
<defs>
<linearGradient id="paint0_linear_326_304" x1="21.9853" y1="21.6471" x2="-2.97726" y2="9.80215" gradientUnits="userSpaceOnUse">
<stop stop-color="#FFE5A2"/>
<stop offset="0.505208" stop-color="#BF841A"/>
<stop offset="1" stop-color="#FFCD74"/>
</linearGradient>
</defs>
</svg>

<svg width="23" height="23" fill="none" xmlns="http://www.w3.org/2000/svg"><path d="M6.389 0A6.396 6.396 0 000 6.389V16.61A6.396 6.396 0 006.389 23H16.61A6.396 6.396 0 0023 16.611V6.39A6.396 6.396 0 0016.611 0H6.39zm0 2.556H16.61a3.838 3.838 0 013.833 3.833V16.61a3.838 3.838 0 01-3.833 3.833H6.39a3.838 3.838 0 01-3.833-3.833V6.39A3.838 3.838 0 016.39 2.557zm11.5 1.277a1.278 1.278 0 100 2.556 1.278 1.278 0 000-2.556zM11.5 5.111A6.396 6.396 0 005.111 11.5a6.396 6.396 0 006.389 6.389 6.396 6.396 0 006.389-6.389A6.396 6.396 0 0011.5 5.111zm0 2.556a3.838 3.838 0 013.833 3.833 3.838 3.838 0 01-3.833 3.833A3.838 3.838 0 017.667 11.5 3.838 3.838 0 0111.5 7.667z" fill="url(#paint0_linear_326_304)"/><defs><linearGradient id="paint0_linear_326_304" x1="21.985" y1="21.647" x2="-2.977" y2="9.802" gradientUnits="userSpaceOnUse"><stop stop-color="#FFE5A2"/><stop offset=".505" stop-color="#BF841A"/><stop offset="1" stop-color="#FFCD74"/></linearGradient></defs></svg>
